X: 1
T: Mom's Birthday On July 27th
M: 9/8
L: 1/8
R: slip jig
K: Dmaj
A2F DEF GAB|A2F DDD FED|A2F DEF GAB|A2f gfe dBd|
A2F DEF GAB|A2F DDD FED|A2F DEF GAB|1Ade fed BdB:|2Ade fef gab||
add edd fdd|add fed B2A|add edd fef|g2B BdB Afg|
add edd fdd|add fed B2A|DEF EFA BAB|1d2A def gab:|2gfe fed BdB||
